X:51
T:Blue Night 
C:Linda Riha solo
N:Transcribed by Kim Davis and Mike Stangeland
R:bluegrass
L:1/8
Q:1/4=240
M:4/4
K:A
B2 Bc ^d2 | "B"f2 ff ff ff | f2 ag fe dc | B2 BB BB BB |
|B2 BB Bc de | f2 ff ff ff | f2 ag fe dB | "E"de [ee][ee] [ee][ee] [ee][ee] |
| [e2e2] [ee][ee] d2 e2 | "B"ef ff f2 ff | "E"fe de [e2e2] [ee][ee] | {e}"B"fb bb b2 bd' |
| ba fe de f2 | "F#"f2 [af][af] [af][af] [af][af] | [a2f2] ba fe d^d | "B"B2 BB Bd ef |
|b8 | (3[fd][fd][fd] (3[fd][fd][fd] (3[fd][fd][fd] (3[fd][fd][fd] | "E"[g8e8] | "F#"[f4c4] [a4f4] | "B"[b4f4] [b4d4] ||

